cookie-law-info/lite/admin/dist/img/crown.svg

<svg width="10" height="8" viewBox="0 0 10 8" fill="none" xmlns="http://www.w3.org/2000/svg">
<g id="crown">
<path d="M9.4902 3.20575L8.64034 7.20897C8.62349 7.29272 8.57977 7.3676 8.51671 7.4207C8.45366 7.47381 8.37521 7.50181 8.29487 7.49991H1.67563C1.59529 7.50181 1.51684 7.47381 1.45379 7.4207C1.39073 7.3676 1.34701 7.29272 1.33016 7.20897L0.507933 3.20575C0.494095 3.1381 0.498424 3.06767 0.520422 3.00253C0.54242 2.93739 0.581196 2.88018 0.632303 2.83746C0.68355 2.79459 0.745124 2.76804 0.809919 2.76087C0.874714 2.75371 0.94009 2.76621 0.998503 2.79695L3.01606 3.83919L4.68814 0.6867C4.71827 0.630022 4.76197 0.582879 4.81477 0.55008C4.86757 0.517281 4.92759 0.5 4.9887 0.5C5.04982 0.5 5.10983 0.517281 5.16264 0.55008C5.21544 0.582879 5.25913 0.630022 5.28926 0.6867L6.96135 3.84287L8.99272 2.79327C9.05155 2.76003 9.11814 2.74561 9.18448 2.75177C9.25081 2.75792 9.31407 2.78438 9.36663 2.82796C9.41919 2.87154 9.45881 2.93038 9.48074 2.9974C9.50266 3.06443 9.50595 3.13678 9.4902 3.20575Z" fill="#FFB240"/>
</g>
</svg>

<svg width="10" height="8" fill="none" xmlns="http://www.w3.org/2000/svg"><path d="m9.49 3.206-.85 4.003a.372.372 0 0 1-.123.212.332.332 0 0 1-.222.079h-6.62a.332.332 0 0 1-.221-.08.372.372 0 0 1-.124-.211L.508 3.206a.391.391 0 0 1 .012-.203.368.368 0 0 1 .112-.166.327.327 0 0 1 .366-.04l2.018 1.042L4.688.687A.358.358 0 0 1 4.815.55a.33.33 0 0 1 .348 0c.052.033.096.08.126.137l1.672 3.156 2.032-1.05a.328.328 0 0 1 .374.035.369.369 0 0 1 .114.17c.022.066.025.139.01.208z" fill="#FFB240"/></svg>
